img/icons/Turbocharger.svg

<?xml version="1.0" encoding="UTF-8" standalone="no"?>
<svg
   xmlns:dc="http://purl.org/dc/elements/1.1/"
   xmlns:cc="http://creativecommons.org/ns#"
   xmlns:rdf="http://www.w3.org/1999/02/22-rdf-syntax-ns#"
   xmlns:svg="http://www.w3.org/2000/svg"
   xmlns="http://www.w3.org/2000/svg"
   xmlns:sodipodi="http://sodipodi.sourceforge.net/DTD/sodipodi-0.dtd"
   xmlns:inkscape="http://www.inkscape.org/namespaces/inkscape"
   width="300"
   height="300"
   version="1.1"
   id="svg18"
   sodipodi:docname="Turbocharger.svg"
   inkscape:version="0.92.2 (5c3e80d, 2017-08-06)">
  <metadata
     id="metadata24">
    <rdf:RDF>
      <cc:Work
         rdf:about="">
        <dc:format>image/svg+xml</dc:format>
        <dc:type
           rdf:resource="http://purl.org/dc/dcmitype/StillImage" />
        <dc:title></dc:title>
      </cc:Work>
    </rdf:RDF>
  </metadata>
  <defs
     id="defs22">
    <mask
       id="_1-9">
      <g
         id="g30">
        <path
           inkscape:connector-curvature="0"
           d="M 0,0 H 300 V 300 H 0 Z"
           style="fill:#ffffff;stroke:none"
           id="path26" />
        <path
           inkscape:connector-curvature="0"
           d="m 129.90382,144.44219 c 6.81263,0 12.33546,5.5228 12.33546,12.33552 0,6.81251 -5.52283,12.33532 -12.33546,12.33532 -6.81264,0 -12.33546,-5.52281 -12.33546,-12.33532 0,-6.81272 5.52282,-12.33552 12.33546,-12.33552 z"
           style="fill:#000000;fill-rule:nonzero;stroke:none"
           id="path28" />
      </g>
    </mask>
  </defs>
  <sodipodi:namedview
     pagecolor="#ffffff"
     bordercolor="#666666"
     borderopacity="1"
     objecttolerance="10"
     gridtolerance="10"
     guidetolerance="10"
     inkscape:pageopacity="0"
     inkscape:pageshadow="2"
     inkscape:window-width="1920"
     inkscape:window-height="1027"
     id="namedview20"
     showgrid="false"
     inkscape:zoom="1.93"
     inkscape:cx="150"
     inkscape:cy="150"
     inkscape:window-x="-8"
     inkscape:window-y="-8"
     inkscape:window-maximized="1"
     inkscape:current-layer="svg18" />
  <mask
     id="_1">
    <g
       id="g14">
      <path
         d="M 0,0 300,0 300,300 0,300 0,0 Z"
         style="stroke:none; fill:white"
         id="path10" />
      <path
         d="M 215.223724,120.285255 C 215.223724,120.285255 218.307728,129.022962 218.307728,129.022962 C 218.307728,129.022962 153.374988,129.031241 153.374988,129.031241 C 153.374988,129.031241 157.173193,130.854410 161.666375,138.797432 C 164.670521,144.108135 166.396040,150.240326 166.396040,156.777710 C 166.396040,176.931757 150.057900,193.269950 129.903817,193.269950 C 109.749538,193.269950 93.411398,176.931757 93.411398,156.777710 C 93.411398,136.623466 109.749538,120.285255 129.903817,120.285255 C 143.520570,120.285255 215.223724,120.285255 215.223724,120.285255 Z"
         style="stroke:none; fill:black"
         fill-rule="nonzero"
         id="path12" />
    </g>
  </mask>
  <g
     id="g4080"
     transform="matrix(0.9,0,0,0.9,14.814718,11.675592)">
    <path
       id="Turbocharger copy 2"
       inkscape:label="Turbocharger copy 2"
       style="fill:#373737;fill-rule:nonzero;stroke:none"
       mask="url(#_1)"
       d="m 129.90382,68.373764 c 48.824,0 88.40391,39.579716 88.40391,88.403946 0,48.82404 -39.57991,88.40375 -88.40391,88.40375 -48.824182,0 -88.403913,-39.57971 -88.403913,-88.40375 0,-48.82423 39.579731,-88.403946 88.403913,-88.403946 z m 0,0 c 0,0 93.02954,0 93.02954,0 0,0 0,51.911496 0,51.911496 0,0 -93.02954,0 -93.02954,0 0,0 0,-51.911496 0,-51.911496 z m 107.42093,-6.167651 c 0,0 15.41925,0 15.41925,0 3.40642,0 6.16783,2.761388 6.16783,6.167651 0,0 0,51.911496 0,51.911496 0,3.40645 -2.76141,6.16786 -6.16783,6.16786 0,0 -15.41925,0 -15.41925,0 -3.40623,0 -6.16763,-2.76141 -6.16763,-6.16786 0,0 0,-51.911496 0,-51.911496 0,-3.406263 2.7614,-6.167651 6.16763,-6.167651 z"
       inkscape:connector-curvature="0" />
    <path
       id="Turbocharger copy"
       inkscape:label="Turbocharger copy"
       style="fill:#373737;fill-rule:nonzero;stroke:none"
       mask="url(#_1-9)"
       d="m 129.90712,156.81574 c 0,0 5.00742,-4.50679 5.00742,-4.50679 0,0 0.5007,-9.01335 5.50811,-12.51842 5.0074,-3.50529 15.49187,-6.8588 0.5007,-10.01489 -9.5141,-2.00302 -14.12651,1.8599 -15.02223,7.01037 -2.003,11.51713 4.006,20.02973 4.006,20.02973 z m 0,0 c 0,0 -6.70013,0.70271 -6.70013,0.70271 0,0 -5.70295,6.99759 -11.81435,6.88997 -6.11138,-0.10745 -16.564607,-3.55704 -6.29169,7.80794 6.5198,7.21248 12.52184,6.7986 16.2738,3.15823 8.39011,-8.14007 8.53237,-18.55885 8.53237,-18.55885 z m 0,0 c 0,0 -2.7388,-6.15511 -2.7388,-6.15511 0,0 -8.41749,-3.26137 -10.20359,-9.10689 -1.78629,-5.84552 -1.73592,-16.85307 -9.37001,-3.57095 -4.84492,8.42949 -2.59654,14.00973 2.02525,16.4533 10.33428,5.46376 20.28715,2.37965 20.28715,2.37965 z m 0,0 c 0,0 -1.40211,6.58921 -1.40211,6.58921 0,0 4.89271,7.5862 2.90202,13.36525 -1.99086,5.77905 -8.50167,14.65477 5.48146,8.39653 8.87426,-3.97191 10.33541,-9.80802 8.03259,-14.50145 -5.14913,-10.49465 -15.01396,-13.84954 -15.01396,-13.84954 z m 0,0 c 0,0 5.83347,3.36959 5.83347,3.36959 0,0 8.72685,-2.30906 13.60799,1.37013 4.88094,3.67916 11.31032,12.6141 9.67936,-2.61848 -1.03523,-9.66744 -6.13419,-12.86037 -11.30943,-12.12062 -11.57225,1.65401 -17.81139,9.99938 -17.81139,9.99938 z"
       inkscape:connector-curvature="0"
       transform="translate(-0.0300518,3.2999652e-4)" />
    <path
       id="Turbocharger copy-4"
       inkscape:label="Turbocharger copy"
       style="fill:#373737;fill-rule:nonzero;stroke:none"
       d="m 129.90376,150.0957 c 3.6902,0 6.68156,2.9914 6.68156,6.68176 0,3.69015 -2.99136,6.68154 -6.68156,6.68154 -3.69022,0 -6.68176,-2.99139 -6.68176,-6.68154 0,-3.69036 2.99154,-6.68176 6.68176,-6.68176 z"
       inkscape:connector-curvature="0" />
  </g>
</svg>

<?xml version="1.0" encoding="UTF-8" standalone="no"?>
<svg
   xmlns:dc="http://purl.org/dc/elements/1.1/"
   xmlns:cc="http://creativecommons.org/ns#"
   xmlns:rdf="http://www.w3.org/1999/02/22-rdf-syntax-ns#"
   xmlns:svg="http://www.w3.org/2000/svg"
   xmlns="http://www.w3.org/2000/svg"
   xmlns:sodipodi="http://sodipodi.sourceforge.net/DTD/sodipodi-0.dtd"
   xmlns:inkscape="http://www.inkscape.org/namespaces/inkscape"
   width="300"
   height="300"
   version="1.1"
   id="svg18"
   sodipodi:docname="Turbocharger.svg"
   inkscape:version="0.92.1 r15371">
  <metadata
     id="metadata24">
    <rdf:RDF>
      <cc:Work
         rdf:about="">
        <dc:format>image/svg+xml</dc:format>
        <dc:type
           rdf:resource="http://purl.org/dc/dcmitype/StillImage" />
        <dc:title></dc:title>
      </cc:Work>
    </rdf:RDF>
  </metadata>
  <defs
     id="defs22">
    <mask
       id="_1-9">
      <g
         id="g30">
        <path
           inkscape:connector-curvature="0"
           d="M 0,0 H 300 V 300 H 0 Z"
           style="fill:#ffffff;stroke:none"
           id="path26" />
        <path
           inkscape:connector-curvature="0"
           d="m 129.90382,144.44219 c 6.81263,0 12.33546,5.5228 12.33546,12.33552 0,6.81251 -5.52283,12.33532 -12.33546,12.33532 -6.81264,0 -12.33546,-5.52281 -12.33546,-12.33532 0,-6.81272 5.52282,-12.33552 12.33546,-12.33552 z"
           style="fill:#000000;fill-rule:nonzero;stroke:none"
           id="path28" />
      </g>
    </mask>
  </defs>
  <sodipodi:namedview
     pagecolor="#ffffff"
     bordercolor="#666666"
     borderopacity="1"
     objecttolerance="10"
     gridtolerance="10"
     guidetolerance="10"
     inkscape:pageopacity="0"
     inkscape:pageshadow="2"
     inkscape:window-width="636"
     inkscape:window-height="730"
     id="namedview20"
     showgrid="false"
     inkscape:zoom="1.93"
     inkscape:cx="150"
     inkscape:cy="150"
     inkscape:window-x="652"
     inkscape:window-y="0"
     inkscape:window-maximized="0"
     inkscape:current-layer="svg18" />
  <mask
     id="_1">
    <g
       id="g14">
      <path
         d="M 0,0 300,0 300,300 0,300 0,0 Z"
         style="stroke:none; fill:white"
         id="path10" />
      <path
         d="M 215.223724,120.285255 C 215.223724,120.285255 218.307728,129.022962 218.307728,129.022962 C 218.307728,129.022962 153.374988,129.031241 153.374988,129.031241 C 153.374988,129.031241 157.173193,130.854410 161.666375,138.797432 C 164.670521,144.108135 166.396040,150.240326 166.396040,156.777710 C 166.396040,176.931757 150.057900,193.269950 129.903817,193.269950 C 109.749538,193.269950 93.411398,176.931757 93.411398,156.777710 C 93.411398,136.623466 109.749538,120.285255 129.903817,120.285255 C 143.520570,120.285255 215.223724,120.285255 215.223724,120.285255 Z"
         style="stroke:none; fill:black"
         fill-rule="nonzero"
         id="path12" />
    </g>
  </mask>
  <path
     d="M 129.903817,68.373764 C 178.727818,68.373764 218.307728,107.953477 218.307728,156.777710 C 218.307728,205.601746 178.727818,245.181459 129.903817,245.181459 C 81.079638,245.181459 41.499907,205.601746 41.499907,156.777710 C 41.499907,107.953477 81.079638,68.373764 129.903817,68.373764 Z M 129.903817,68.373764 C 129.903817,68.373764 222.933358,68.373764 222.933358,68.373764 C 222.933358,68.373764 222.933358,120.285255 222.933358,120.285255 C 222.933358,120.285255 129.903817,120.285255 129.903817,120.285255 C 129.903817,120.285255 129.903817,68.373764 129.903817,68.373764 Z M 237.324750,62.206113 C 237.324750,62.206113 252.744001,62.206113 252.744001,62.206113 C 256.150424,62.206113 258.911830,64.967501 258.911830,68.373764 C 258.911830,68.373764 258.911830,120.285255 258.911830,120.285255 C 258.911830,123.691714 256.150424,126.453120 252.744001,126.453120 C 252.744001,126.453120 237.324750,126.453120 237.324750,126.453120 C 233.918524,126.453120 231.157118,123.691714 231.157118,120.285255 C 231.157118,120.285255 231.157118,68.373764 231.157118,68.373764 C 231.157118,64.967501 233.918524,62.206113 237.324750,62.206113 Z"
     fill-rule="nonzero"
     mask="url(#_1)"
     style="stroke: none; fill: rgb(55, 55, 55)"
     inkscape:label="Turbocharger copy 2"
     id="Turbocharger copy 2" />
  <path
     transform="translate(-0.0300518,3.2999652e-4)"
     inkscape:connector-curvature="0"
     d="m 129.90712,156.81574 c 0,0 5.00742,-4.50679 5.00742,-4.50679 0,0 0.5007,-9.01335 5.50811,-12.51842 5.0074,-3.50529 15.49187,-6.8588 0.5007,-10.01489 -9.5141,-2.00302 -14.12651,1.8599 -15.02223,7.01037 -2.003,11.51713 4.006,20.02973 4.006,20.02973 z m 0,0 c 0,0 -6.70013,0.70271 -6.70013,0.70271 0,0 -5.70295,6.99759 -11.81435,6.88997 -6.11138,-0.10745 -16.564607,-3.55704 -6.29169,7.80794 6.5198,7.21248 12.52184,6.7986 16.2738,3.15823 8.39011,-8.14007 8.53237,-18.55885 8.53237,-18.55885 z m 0,0 c 0,0 -2.7388,-6.15511 -2.7388,-6.15511 0,0 -8.41749,-3.26137 -10.20359,-9.10689 -1.78629,-5.84552 -1.73592,-16.85307 -9.37001,-3.57095 -4.84492,8.42949 -2.59654,14.00973 2.02525,16.4533 10.33428,5.46376 20.28715,2.37965 20.28715,2.37965 z m 0,0 c 0,0 -1.40211,6.58921 -1.40211,6.58921 0,0 4.89271,7.5862 2.90202,13.36525 -1.99086,5.77905 -8.50167,14.65477 5.48146,8.39653 8.87426,-3.97191 10.33541,-9.80802 8.03259,-14.50145 -5.14913,-10.49465 -15.01396,-13.84954 -15.01396,-13.84954 z m 0,0 c 0,0 5.83347,3.36959 5.83347,3.36959 0,0 8.72685,-2.30906 13.60799,1.37013 4.88094,3.67916 11.31032,12.6141 9.67936,-2.61848 -1.03523,-9.66744 -6.13419,-12.86037 -11.30943,-12.12062 -11.57225,1.65401 -17.81139,9.99938 -17.81139,9.99938 z"
     mask="url(#_1-9)"
     style="fill:#373737;fill-rule:nonzero;stroke:none"
     inkscape:label="Turbocharger copy"
     id="Turbocharger copy" />
  <path
     inkscape:connector-curvature="0"
     d="m 129.90376,150.0957 c 3.6902,0 6.68156,2.9914 6.68156,6.68176 0,3.69015 -2.99136,6.68154 -6.68156,6.68154 -3.69022,0 -6.68176,-2.99139 -6.68176,-6.68154 0,-3.69036 2.99154,-6.68176 6.68176,-6.68176 z"
     style="fill:#373737;fill-rule:nonzero;stroke:none"
     inkscape:label="Turbocharger copy"
     id="Turbocharger copy-4" />
</svg>
